X:950
T: Ilavában most faragják azt a fát
Q: 1/4=80
L: 1/4
K:C
d/B/ G D | G/G/G/c/ | B/A/ G z |
B/c/ d d | c/B/A/G/ | B/d/ A z |
B/c/ d d | c/B/A/G/ | B/d/ A z |
d/B/ G D | (3:2:2 GG/ G/c/ | (3:2:2 B/A G z |

